svgs/light/people-line.svg

<svg xmlns="http://www.w3.org/2000/svg" viewBox="0 0 640 512"><!--! Font Awesome Pro 6.4.2 by @fontawesome - https://fontawesome.com License - https://fontawesome.com/license (Commercial License) Copyright 2023 Fonticons, Inc. --><path d="M336 80a16 16 0 1 0 -32 0 16 16 0 1 0 32 0zm-64 0a48 48 0 1 1 96 0 48 48 0 1 1 -96 0zm24 208h48V177.5c-3.8-1-7.7-1.5-11.8-1.5H307.8c-4 0-8 .5-11.8 1.5V288zm122.4-15.6L376 203.5V288c0 17.7-14.3 32-32 32H296c-17.7 0-32-14.3-32-32V203.5l-42.4 68.9c-.2 .3-.3 .5-.5 .8c1.1 1.6 2.2 3.2 3.3 4.9l45.3 73.5c4.6 7.5 2.3 17.4-5.2 22s-17.4 2.3-22-5.2L200 299.5V368c0 17.7-14.3 32-32 32H120c-17.7 0-32-14.3-32-32V299.5L45.6 368.4c-4.6 7.5-14.5 9.9-22 5.2s-9.9-14.5-5.2-22l45.3-73.5C78.2 254.4 104 240 131.8 240h24.5c14.6 0 28.7 4 40.8 11.2l42.5-69.1C254.2 158.4 280 144 307.8 144h24.5c27.8 0 53.6 14.4 68.1 38.1l42.6 69.1c12.2-7.2 26.2-11.2 40.8-11.2h24.5c27.8 0 53.6 14.4 68.1 38.1l45.3 73.5c4.6 7.5 2.3 17.4-5.2 22s-17.4 2.3-22-5.2L552 299.5V368c0 17.7-14.3 32-32 32H472c-17.7 0-32-14.3-32-32V299.5l-42.4 68.9c-4.6 7.5-14.5 9.9-22 5.2s-9.9-14.5-5.2-22l45.3-73.5c1-1.7 2.1-3.3 3.3-4.9c-.2-.3-.4-.5-.5-.8zM16 448H624c8.8 0 16 7.2 16 16s-7.2 16-16 16H16c-8.8 0-16-7.2-16-16s7.2-16 16-16zM144 192a16 16 0 1 0 0-32 16 16 0 1 0 0 32zm0-64a48 48 0 1 1 0 96 48 48 0 1 1 0-96zM120 273.5V368h48V273.5c-3.8-1-7.7-1.5-11.8-1.5H131.8c-4 0-8 .5-11.8 1.5zM512 176a16 16 0 1 0 -32 0 16 16 0 1 0 32 0zm-64 0a48 48 0 1 1 96 0 48 48 0 1 1 -96 0zm24 192h48V273.5c-3.8-1-7.7-1.5-11.8-1.5H483.8c-4 0-8 .5-11.8 1.5V368z"/></svg>

<svg xmlns="http://www.w3.org/2000/svg" viewBox="0 0 640 512"><!--! Font Awesome Pro 6.1.1 by @fontawesome - https://fontawesome.com License - https://fontawesome.com/license (Commercial License) Copyright 2022 Fonticons, Inc. --><path d="M368 80C368 106.5 346.5 128 320 128C293.5 128 272 106.5 272 80C272 53.49 293.5 32 320 32C346.5 32 368 53.49 368 80zM320 64C311.2 64 304 71.16 304 80C304 88.84 311.2 96 320 96C328.8 96 336 88.84 336 80C336 71.16 328.8 64 320 64zM418.4 272.4L376 203.5V288C376 305.7 361.7 320 344 320H296C278.3 320 264 305.7 264 288V203.5L221.6 272.4C221.5 272.7 221.3 272.9 221.1 273.2C222.3 274.8 223.3 276.4 224.4 278.1L269.6 351.6C274.3 359.1 271.9 368.1 264.4 373.6C256.9 378.3 247 375.9 242.4 368.4L200 299.5V368C200 385.7 185.7 400 168 400H120C102.3 400 88 385.7 88 368V299.5L45.63 368.4C40.1 375.9 31.14 378.3 23.62 373.6C16.09 368.1 13.74 359.1 18.38 351.6L63.63 278.1C78.19 254.4 103.1 239.1 131.8 239.1H156.2C170.9 239.1 184.9 243.1 197.1 251.2L239.6 182.1C254.2 158.4 279.1 143.1 307.8 143.1H332.2C360 143.1 385.8 158.4 400.4 182.1L442.9 251.2C455.1 243.1 469.2 239.1 483.8 239.1H508.2C536 239.1 561.8 254.4 576.4 278.1L621.6 351.6C626.3 359.1 623.9 368.1 616.4 373.6C608.9 378.3 599 375.9 594.4 368.4L552 299.5V368C552 385.7 537.7 400 520 400H472C454.3 400 440 385.7 440 368V299.5L397.6 368.4C392.1 375.9 383.1 378.3 375.6 373.6C368.1 368.1 365.7 359.1 370.4 351.6L415.6 278.1C416.7 276.4 417.8 274.8 418.9 273.2C418.7 272.9 418.5 272.7 418.4 272.4L418.4 272.4zM344 288V177.5C340.2 176.5 336.3 176 332.2 176H307.8C303.7 176 299.8 176.5 296 177.5V288H344zM120 273.5V368H168V273.5C164.2 272.5 160.3 272 156.2 272H131.8C127.7 272 123.8 272.5 120 273.5zM520 368V273.5C516.2 272.5 512.3 272 508.2 272H483.8C479.8 272 475.8 272.5 472 273.5V368H520zM624 448C632.8 448 640 455.2 640 464C640 472.8 632.8 480 624 480H16C7.164 480 0 472.8 0 464C0 455.2 7.164 448 16 448H624zM96 176C96 149.5 117.5 128 144 128C170.5 128 192 149.5 192 176C192 202.5 170.5 224 144 224C117.5 224 96 202.5 96 176zM144 192C152.8 192 160 184.8 160 176C160 167.2 152.8 160 144 160C135.2 160 128 167.2 128 176C128 184.8 135.2 192 144 192zM544 176C544 202.5 522.5 224 496 224C469.5 224 448 202.5 448 176C448 149.5 469.5 128 496 128C522.5 128 544 149.5 544 176zM496 160C487.2 160 480 167.2 480 176C480 184.8 487.2 192 496 192C504.8 192 512 184.8 512 176C512 167.2 504.8 160 496 160V160z"/></svg>
